!!!!SEGMENT: pl-kk--i-545--012_klonowski-teofil-tomasz--ludu-moj-ludu.krn
!!!cenid: 18xx:4489
!!!COM: Klonowski, Teofil Tomasz
!!!COM-rismID: pe30023456
!!!CDT: 1805-1876
!!!CNT: Polish
!!!OTL: Ludu mój ludu
!!!PDT:
!!!AGN: Sacred
!!!YEC: Copyright 2022 Narodowy Instytut Fryderyka Chopina (https://polishscores.org)
!!!YEM: License CC-BY-4.0 (https://creativecommons.org/licenses/by/4.0)
!!!SMS-siglum: PL-Kk
!!!SMS-shelfmark: I.545
!!!SMS-variant:
!!!SMS-altvar:
!!!SMS-shelfwork: 012 W
!!!NIFC-rismSourceID: 1001210831
!!!NIFC-rismChildID: 1001210993
!!!NIFC-islandoraID: pl-kk:17058
!!!URL-pdf-islandora: https://repozytorium.nifc.pl/islandora/object/pl-kk%3A17058/datastream/PDF/view
!!!URL-scan: https://polish.musicsources.pl/pl/lokalizacje/galeria/rekopisy/7172/9 @EN{Scan on Polish Music Sources Website} @PL{Skany w portalu Dziedzictwo Muzyki Polskiej w otwartym dostępie}
!!!IIIF:
!!!ONB-nifc: UWAGA: 8r. Czterogłos rozpisany bez tekstu słownego
!!!OMD:
!!!AIN: 2 vox
!!!key: a
**kern	**kern
*part2	*part1
*staff2	*staff1
*I"[voce]	*I"[voce]
*Ivox	*Ivox
*ICvox	*ICvox
*clefF4	*clefG2
*k[]	*k[]
*a:	*a:
*M4/4	*M4/4
*met(c)	*met(c)
=1	=1
*^	*^
2A/	2AA\	2ee/	2cc\
4C/	4AA\	4a/	4a\
4E/	4AA\	4cc/	4a\
=2	=2	=2	=2
4E/	2AA\	4cc/	2g#X\
4D/	.	4b/	.
2C/	2AA\	2a/	2a\
=3	=3	=3	=3
4D/	4D\	4ff/	4a\
4E/	4C\	4ee/	4a\
4F/	4BB\	4dd/	4a\
4F/	4AA\	4cc/	4a\
=4	=4	=4	=4
2F/	2GG#X\	4ee/	2b\
.	.	4dd/	.
2E/	2AA\	2cc/	2a\
*v	*v	*	*
=5	=5	=5
4A\	2ee/	4cc\
4G\	.	4b\
4F\	4a/	4a\
8E\L	4cc/	4a\
8D#X\J	.	.
=6	=6	=6
*^	*	*
4E/	2E\	4cc/	1g#X
4Dn/	.	4b/	.
2C/	2AA\	2a/	.
=7	=7	=7	=7
4G#X/	4AA\	4ff/	4dd\
4A/	4AA\	4ee/	4cc\
4F/	4AA\	4dd/	4g#X\
4E/	4AA\	4cc/	4a\
!!LO:LB:g=original
=8	=8	=8	=8
2E/	2GG#\	4ee/	2b\
.	.	4dd/	.
2E/	2AA\	2cc/	2a\
=9!|:	=9!|:	=9!|:	=9!|:
2A/	2F\	2dd/	2dd\
4A/	4A\	4ee/	4cc#X\
4A/	4D\	4ff/	4dd\
=10	=10	=10	=10
4G#X/	4E\	4ff/	4dd\
4Gn/	4AA\	4ee/	4cc#X\
2F/	4D\	2dd/	2dd\
.	4F\	.	.
=11	=11	=11	=11
4A/	4A\	4ee/	4cc\
4d/	4B\	4gg#X/	4ff\
4c#X/	4A\	4aa/	4ee\
4A/	4C#X\	4ggn/	4ee\
=12	=12	=12	=12
4A/	2D\	4ff/	4dd\
8G#X/L	.	4ee/	8b\L
8Gn/J	.	.	8b-X\J
2F/	2D\	2dd/	4a\
.	.	.	4dd\
=13	=13	=13	=13
2B-X/	2G\	2ee/	2dd\
4A/	4D\	4ff/	4ryy
4c/	4C\	4gg/	4ee\
=14	=14	=14	=14
4c/	4F\	4aa/	4ff\
4B-X/	4C#X\	4gg/	4ee\
2A/	2D\	2ff/	4ee\
.	.	.	4dd\
!!LO:LB:g=original
=15	=15	=15	=15
4B-X/	4G\	4ee/	4dd\
4Bn/	4G#X\	4ff/	4dd\
4c/	4A\	4ee/	4cc\
4A/	4AA\	4cc/	4a\
=16	=16	=16	=16
4E/	2E\	4cc/	2g#X\
4D/	.	4b/	.
2C/	2AA\	2a/	2a\
*v	*v	*	*
*	*v	*v
==	==
*-	*-
!!!system-decoration: (s1,s2)
!!!ENC: Anastazja Marusiak
!!!END: 2023-10-29
!!!EED: Marta Chmielewska
!!!EEV: 2024-04-22
